X:327
T:An English Air
C:Traditional Dutch
S:Colin Hume's website,  colinhume.com  - chords can also be printed below the stave.
Q:1/2=112
M:2/2
R:Reel
K:C
L:1/8
K:C
P:A
|: cd | "C"e2g2 e2c2 | "G/B"dcBA G2cd | "Am"e2e2 edec | "G"g6 :|
P:B
|: Bc | "Dm"d2d2 d2e2 | "G"dcBA GABc | "Dm"d2e2 f2e2 | "G"d6ef |\
"C"g3a g3a | "G/B"g3a g2a2 | "C"gfef "G7"d3c | "C"c6 :|

